X: 324
U:~=!turn!
U:w=!wedge!
M:3/4
L:1/8
K:A
E>F | A2 A2 TBA/B/ | (c2wE) z E>F | A2 ~A2 {/c}B(A/B/) | (c2 wE2) (A,/C/E) | c2 ~c2 !sfz!e>c | B2 A2 F2 | E2 C>B,CE | F2 A, z TE>F |


